X: 1
T: The Cowboy's Jig
R: jig
M: 6/8
L: 1/8
K: G
B/A/ | "G"GDE G2A | Bgf gdB | "Am"ABc BGA |"C" BcA "D7"BGE |
"G"GDE G2A | Bgf gdB | "Am"ABc "D7"BcA | "G"BGG G2 :|
|: B/d/ | "C"e2e e2e | egf edB | "Bm"d2d d2d |"Em" dge dBG |
"C"c2d "D7"e2f | "Em"gdB "Am"A2d | "D7"BGA BcA | "G"BGG G :|
